static/assets/images/flags/4x3/ss.svg

<svg height="480" width="640" xmlns="http://www.w3.org/2000/svg"><path d="m0 336h640v144h-640z" fill="#078930"/><path d="m0 144h640v192h-640z" fill="#fff"/><path d="m0 0h640v144h-640z"/><path d="m0 168h640v144h-640z" fill="#da121a"/><path d="m0 0 415.7 240-415.7 240z" fill="#0f47af"/><path d="m200.7 194.8-139 45.2 139 45.1-85.8-118.1v146z" fill="#fcdd09"/></svg>

<svg xmlns="http://www.w3.org/2000/svg" id="flag-icon-css-ss" width="640" height="480">
  <path fill="#078930" d="M0 336h640v144H0z"/>
  <path fill="#fff" d="M0 144h640v192H0z"/>
  <path d="M0 0h640v144H0z"/>
  <path fill="#da121a" d="M0 168h640v144H0z"/>
  <path fill="#0f47af" d="M0 0l415.7 240L0 480z"/>
  <path fill="#fcdd09" d="M200.7 194.8L61.7 240l139 45.1L114.9 167V313z"/>
</svg>
